X:502
T:Pingvin
Z:Jack Campin, http://www.campin.me.uk/
F:Jack Campin's Nine-Note Tunebook
% last edit 03-02-2013
S:conga-like Csango dance from Moldavia
N:a version of the Ukrainian song "Minka",
N:also known as "Yes My Darling Daughter".
M:C|
L:1/8
Q:1/2=104
K:DMin %Transposed from BMIN
D3E  F2D2|A3G FED2|C4  A4 |D2D2 D4 :|
F2F2 F2A2|c3d cBAG|F3A c3B|A2A2 AGFE|
D3E  FED2|A3G FED2|C4  A4 |D2D2 D4 :|


% == Hungarian and Balkan Gypsy songs =======================================

